X:1
T:Title
L:1/8
Q:1/4=120
M:6/8
K:Bb
V:1 treble nm="Grand Piano"
V:1
 z2 D D2 E | D2 C B,2 C | D6- | D2 G G2 A | B2 B A2 G | G6- | G2 G A2 B | c2 B A2 G | ^F6- | %9
 F2 D D2 D | E2 D C2 E | D6 | z2 G A2 B | A3 G3- | G2 G A2 B | A3 G3- | G2 G A2 B | c3 A3- | %18
 A2 A B2 e | d6- | d2 c c2 d | e2 d c2 B | A6- | A2 A B2 c | d2 c B2 A | G6- | G2 B B2 c | %27
 B2 A G2 F | E6- | E2 D D2 E | D6- | D2 B B2 A | G6- | G6 |] %34

